packages/kaspersky-hexa-ui-icons/src/iconsSVGs/16/DataFeeds.svg

<svg width="16" height="16" viewBox="0 0 16 16" fill="none" xmlns="http://www.w3.org/2000/svg">
<path d="M3.67336 1.98754C3.31444 1.98082 3.01802 2.26633 3.0113 2.62525C3.00457 2.98417 3.29008 3.28059 3.649 3.28731C5.91694 3.32982 8.17001 4.21584 9.90015 5.94599C11.6303 7.67614 12.5163 9.92921 12.5588 12.1971C12.5656 12.5561 12.862 12.8416 13.2209 12.8348C13.5798 12.8281 13.8653 12.5317 13.8586 12.1728C13.81 9.5821 12.7968 7.00414 10.8194 5.02675C8.84201 3.04937 6.26405 2.0361 3.67336 1.98754Z" fill="black"/>
<path d="M3.3039 6.23199C4.93354 6.18618 6.57558 6.78472 7.81847 8.02761C9.06136 9.2705 9.6599 10.9125 9.61409 12.5422C9.60401 12.901 9.88673 13.2001 10.2456 13.2102C10.6044 13.2203 10.9035 12.9376 10.9136 12.5787C10.969 10.6066 10.2437 8.61437 8.73771 7.10837C7.23171 5.60237 5.23944 4.87707 3.26737 4.9325C2.90853 4.94259 2.62581 5.24166 2.63589 5.60051C2.64598 5.95935 2.94505 6.24207 3.3039 6.23199Z" fill="black"/>
<path d="M3.12077 9.18497C4.0566 9.0808 5.02666 9.38733 5.74275 10.1034C6.45884 10.8195 6.76537 11.7896 6.6612 12.7254C6.62148 13.0822 6.87851 13.4036 7.2353 13.4433C7.59208 13.483 7.9135 13.226 7.95322 12.8692C8.09922 11.5577 7.66919 10.1914 6.66199 9.18418C5.65479 8.17698 4.28848 7.74696 2.97695 7.89296C2.62017 7.93267 2.36314 8.2541 2.40285 8.61088C2.44257 8.96766 2.76399 9.22469 3.12077 9.18497Z" fill="black"/>
<path d="M2.5518 13.2948C3.13388 13.8768 4.07762 13.8768 4.6597 13.2948C5.24178 12.7127 5.24178 11.7689 4.6597 11.1869C4.07762 10.6048 3.13388 10.6048 2.5518 11.1869C1.96971 11.7689 1.96971 12.7127 2.5518 13.2948Z" fill="black"/>
</svg>

<svg xmlns="http://www.w3.org/2000/svg" width="16" height="16" fill="none" viewBox="0 0 16 16"><path fill="#000" fill-rule="evenodd" d="M3.6734 1.9876a.65.65 0 1 0-.0243 1.2997C5.917 3.33 8.17 4.216 9.9002 5.946s2.6162 3.9832 2.6587 6.2512a.65.65 0 1 0 1.2998-.0244c-.0486-2.5907-1.0619-5.1686-3.0392-7.146S6.2641 2.036 3.6735 1.9876M3.304 6.232c1.6296-.0458 3.2716.5527 4.5145 1.7956s1.8415 2.885 1.7957 4.5146a.65.65 0 1 0 1.2994.0365c.0555-1.972-.6698-3.9643-2.1758-5.4703S5.2395 4.8771 3.2674 4.9325A.65.65 0 0 0 3.304 6.232m-.1832 2.953c.9359-.1042 1.906.2024 2.622.9185s1.0226 1.6861.9185 2.6219a.6501.6501 0 0 0 1.292.1439c.146-1.3116-.284-2.6779-1.2912-3.685C5.6549 8.177 4.2885 7.747 2.977 7.893a.65.65 0 0 0 .1437 1.292m-.569 4.1098c.5821.5821 1.5259.5821 2.108 0 .582-.5821.582-1.5258 0-2.1079s-1.5259-.5821-2.108 0c-.582.5821-.582 1.5258 0 2.1079"/></svg>
